src/lib/packages/icons/src/assets/filled/arrow-down-arrow-up.svg

<svg width="24" height="24" viewBox="0 0 24 24" fill="none" xmlns="http://www.w3.org/2000/svg">
<path d="M21.7071 7.7071C21.5121 7.9021 21.256 8.00007 21 8.00007C20.744 8.00007 20.488 7.9021 20.293 7.7071L18 5.41413V17.0001C18 17.5521 17.553 18.0001 17 18.0001C16.447 18.0001 16 17.5521 16 17.0001V5.41413L13.7071 7.7071C13.3161 8.0981 12.684 8.0981 12.293 7.7071C11.902 7.3161 11.902 6.68403 12.293 6.29304L16.292 2.29401C16.385 2.20101 16.495 2.12797 16.618 2.07697C16.862 1.97597 17.1381 1.97597 17.3821 2.07697C17.5051 2.12797 17.615 2.20101 17.708 2.29401L21.7071 6.29304C22.0981 6.68403 22.0981 7.3161 21.7071 7.7071ZM10.293 16.293L8.00004 18.586V7.00007C8.00004 6.44807 7.55304 6.00007 7.00004 6.00007C6.44704 6.00007 6.00004 6.44807 6.00004 7.00007V18.586L3.70707 16.293C3.31607 15.902 2.68401 15.902 2.29301 16.293C1.90201 16.684 1.90201 17.3161 2.29301 17.7071L6.29203 21.7061C6.38503 21.7991 6.49496 21.8722 6.61796 21.9232C6.73996 21.9742 6.87004 22.0001 7.00004 22.0001C7.13004 22.0001 7.26012 21.9732 7.38212 21.9232C7.50512 21.8722 7.61505 21.7991 7.70805 21.7061L11.7071 17.7071C12.0981 17.3161 12.0981 16.684 11.7071 16.293C11.3161 15.902 10.684 15.902 10.293 16.293Z" fill="currentColor"/>
</svg>

<svg xmlns="http://www.w3.org/2000/svg" width="24" height="24" fill="none"><path fill="currentColor" d="M21.707 7.707a.997.997 0 0 1-1.414 0L18 5.414V17a1 1 0 1 1-2 0V5.414l-2.293 2.293a.999.999 0 1 1-1.414-1.414l3.999-3.999a1 1 0 0 1 1.416 0l4 3.999a.999.999 0 0 1 0 1.414Zm-11.414 8.586L8 18.586V7a1 1 0 1 0-2 0v11.586l-2.293-2.293a.999.999 0 1 0-1.414 1.414l3.999 4a1 1 0 0 0 1.416 0l4-4a.999.999 0 1 0-1.415-1.414Z"/></svg>
